components/src/assets/wm_wallet_totem.svg

<svg width="39" height="32" viewBox="0 0 39 32" fill="none" xmlns="http://www.w3.org/2000/svg">
<path d="M11.2216 5.45366C12.6453 4.63166 14.9537 4.63166 16.3775 5.45366L30.1032 13.3782C31.5269 14.2002 31.5269 15.533 30.1032 16.355L21.0979 21.5542C19.6741 22.3762 17.3657 22.3762 15.942 21.5542L2.21625 13.6296C0.792499 12.8076 0.792499 11.4749 2.21625 10.6529L11.2216 5.45366Z" fill="url(#paint0_linear_2728_36153)" stroke="#363636" stroke-width="0.372093"/>
<path d="M1.52803 13.2315L16.6333 21.9525V25.2229L1.52803 16.5019V13.2315Z" fill="url(#paint1_linear_2728_36153)"/>
<path d="M0.746094 12.1414C0.746094 12.5671 1.04481 12.9525 1.52803 13.2315V16.5019C1.04481 16.2229 0.746094 15.8375 0.746094 15.4117V12.1414Z" fill="url(#paint2_linear_2728_36153)"/>
<path d="M16.6333 21.9525C17.6761 22.5546 19.3669 22.5546 20.4097 21.9525V25.2229C19.3669 25.825 17.6761 25.825 16.6333 25.2229V21.9525Z" fill="url(#paint3_linear_2728_36153)"/>
<path d="M31.5765 14.8667C31.5765 15.2924 31.2776 15.6778 30.7944 15.9568V19.2272C31.2776 18.9482 31.5765 18.5628 31.5765 18.1371V14.8667Z" fill="#363636"/>
<path d="M20.2151 22.0675L30.8439 15.931V19.2084L20.2151 25.3449V22.0675Z" fill="url(#paint4_linear_2728_36153)"/>
<path d="M1.52803 13.2315L16.6333 21.9525M1.52803 13.2315V16.5019M1.52803 13.2315C1.04481 12.9525 0.746094 12.5671 0.746094 12.1414V15.4117C0.746094 15.8375 1.04481 16.2229 1.52803 16.5019M16.6333 21.9525V25.2229M16.6333 21.9525C17.6761 22.5546 19.3669 22.5546 20.4097 21.9525V25.2229C19.3669 25.825 17.6761 25.825 16.6333 25.2229M16.6333 25.2229L1.52803 16.5019M31.5765 14.8667C31.5765 15.2924 31.2776 15.6778 30.7944 15.9568V19.2272C31.2776 18.9482 31.5765 18.5628 31.5765 18.1371V14.8667ZM20.2151 22.0675L30.8439 15.931V19.2084L20.2151 25.3449V22.0675Z" stroke="#363636" stroke-width="0.372093"/>
<path d="M14.2619 10.7788C15.5654 10.0262 17.6788 10.0262 18.9823 10.7788L26.0629 14.8668C27.3664 15.6194 27.3664 16.8395 26.0629 17.5921C24.7594 18.3447 22.646 18.3447 21.3425 17.5921L14.2619 13.5041C12.9584 12.7515 12.9584 11.5314 14.2619 10.7788Z" fill="url(#paint5_linear_2728_36153)"/>
<path d="M13.7897 13.2316L21.8144 17.8646V18.9548L13.7897 14.3217V13.2316Z" fill="url(#paint6_linear_2728_36153)"/>
<path d="M25.5906 17.8646L26.5347 17.3196V18.4097L25.5906 18.9548V17.8646Z" fill="url(#paint7_linear_2728_36153)"/>
<path d="M13.0078 12.1415C13.0078 12.5672 13.3065 12.9526 13.7897 13.2316V14.3217C13.3065 14.0427 13.0078 13.6573 13.0078 13.2316V12.1415Z" fill="url(#paint8_linear_2728_36153)"/>
<path d="M21.8144 17.8646C22.8572 18.4667 24.5478 18.4667 25.5906 17.8646V18.9548C24.5478 19.5568 22.8572 19.5568 21.8144 18.9548V17.8646Z" fill="url(#paint9_linear_2728_36153)"/>
<path d="M27.317 16.2294C27.317 16.6552 27.0179 17.0406 26.5347 17.3196V18.4097C27.0179 18.1307 27.317 17.7453 27.317 17.3196V16.2294Z" fill="url(#paint10_linear_2728_36153)"/>
<path d="M13.7897 13.2316L21.8144 17.8646M13.7897 13.2316V14.3217M13.7897 13.2316C13.3065 12.9526 13.0078 12.5672 13.0078 12.1415V13.2316C13.0078 13.6573 13.3065 14.0427 13.7897 14.3217M21.8144 17.8646V18.9548M21.8144 17.8646C22.8572 18.4667 24.5478 18.4667 25.5906 17.8646M21.8144 18.9548L13.7897 14.3217M21.8144 18.9548C22.8572 19.5568 24.5478 19.5568 25.5906 18.9548M25.5906 17.8646L26.5347 17.3196M25.5906 17.8646V18.9548M26.5347 17.3196V18.4097M26.5347 17.3196C27.0179 17.0406 27.317 16.6552 27.317 16.2294V17.3196C27.317 17.7453 27.0179 18.1307 26.5347 18.4097M26.5347 18.4097L25.5906 18.9548M14.2619 13.5041L21.3425 17.5921C22.646 18.3447 24.7594 18.3447 26.0629 17.5921C27.3664 16.8395 27.3664 15.6194 26.0629 14.8668L18.9823 10.7788C17.6788 10.0262 15.5654 10.0262 14.2619 10.7788C12.9584 11.5314 12.9584 12.7515 14.2619 13.5041Z" stroke="#363636" stroke-width="0.372093"/>
<circle cx="2.18026" cy="2.18026" r="2.18026" transform="matrix(0.866025 0.5 -0.866025 0.5 16.4961 9.14331)" fill="url(#paint11_linear_2728_36153)" stroke="#363636" stroke-width="0.372093"/>
<path d="M13.8242 11.3235C13.8242 11.7492 14.1231 12.1346 14.6063 12.4136V12.9587C14.1231 12.6797 13.8242 12.2943 13.8242 11.8686V11.3235Z" fill="url(#paint12_linear_2728_36153)" stroke="#363636" stroke-width="0.372093"/>
<path d="M14.6055 12.4138C15.6483 13.0159 17.339 13.0159 18.3818 12.4138V12.9589C17.339 13.5609 15.6483 13.5609 14.6055 12.9589V12.4138Z" fill="url(#paint13_linear_2728_36153)" stroke="#363636" stroke-width="0.372093"/>
<path d="M19.1649 11.3235C19.1649 11.7492 18.866 12.1346 18.3828 12.4136V12.9587C18.866 12.6797 19.1649 12.2943 19.1649 11.8686V11.3235Z" fill="url(#paint14_linear_2728_36153)" stroke="#363636" stroke-width="0.372093"/>
<defs>
<linearGradient id="paint0_linear_2728_36153" x1="3.29183" y1="12.6757" x2="24.8359" y2="23.1664" gradientUnits="userSpaceOnUse">
<stop stop-color="#009877"/>
<stop offset="1" stop-color="#50D098"/>
</linearGradient>
<linearGradient id="paint1_linear_2728_36153" x1="0.740736" y1="18.815" x2="31.5717" y2="18.815" gradientUnits="userSpaceOnUse">
<stop stop-color="#005D84"/>
<stop offset="1" stop-color="#4A989D"/>
</linearGradient>
<linearGradient id="paint2_linear_2728_36153" x1="3.82255" y1="19.9987" x2="23.8332" y2="9.16557" gradientUnits="userSpaceOnUse">
<stop stop-color="#8ED7C6"/>
<stop offset="1" stop-color="#56ADAB"/>
</linearGradient>
<linearGradient id="paint3_linear_2728_36153" x1="3.82255" y1="19.9987" x2="23.8332" y2="9.16557" gradientUnits="userSpaceOnUse">
<stop stop-color="#FF797F"/>
<stop offset="1" stop-color="#FF587F"/>
</linearGradient>
<linearGradient id="paint4_linear_2728_36153" x1="3.82255" y1="19.9987" x2="23.8332" y2="9.16557" gradientUnits="userSpaceOnUse">
<stop stop-color="#FF797F"/>
<stop offset="1" stop-color="#FF587F"/>
</linearGradient>
<linearGradient id="paint5_linear_2728_36153" x1="14.4357" y1="15.5512" x2="24.9995" y2="11.6434" gradientUnits="userSpaceOnUse">
<stop stop-color="#8ED7C6"/>
<stop offset="1" stop-color="#56ADAB"/>
</linearGradient>
<linearGradient id="paint6_linear_2728_36153" x1="14.4357" y1="15.5512" x2="24.9995" y2="11.6434" gradientUnits="userSpaceOnUse">
<stop stop-color="#8ED7C6"/>
<stop offset="1" stop-color="#56ADAB"/>
</linearGradient>
<linearGradient id="paint7_linear_2728_36153" x1="14.4357" y1="15.5512" x2="24.9995" y2="11.6434" gradientUnits="userSpaceOnUse">
<stop stop-color="#8ED7C6"/>
<stop offset="1" stop-color="#56ADAB"/>
</linearGradient>
<linearGradient id="paint8_linear_2728_36153" x1="14.4357" y1="15.5512" x2="24.9995" y2="11.6434" gradientUnits="userSpaceOnUse">
<stop stop-color="#8ED7C6"/>
<stop offset="1" stop-color="#56ADAB"/>
</linearGradient>
<linearGradient id="paint9_linear_2728_36153" x1="14.4357" y1="15.5512" x2="24.9995" y2="11.6434" gradientUnits="userSpaceOnUse">
<stop stop-color="#8ED7C6"/>
<stop offset="1" stop-color="#56ADAB"/>
</linearGradient>
<linearGradient id="paint10_linear_2728_36153" x1="14.4357" y1="15.5512" x2="24.9995" y2="11.6434" gradientUnits="userSpaceOnUse">
<stop stop-color="#8ED7C6"/>
<stop offset="1" stop-color="#56ADAB"/>
</linearGradient>
<linearGradient id="paint11_linear_2728_36153" x1="0.435121" y1="2.53171" x2="3.8992" y2="1.70853" gradientUnits="userSpaceOnUse">
<stop stop-color="#8ED7C6"/>
<stop offset="1" stop-color="#56ADAB"/>
</linearGradient>
<linearGradient id="paint12_linear_2728_36153" x1="13.8801" y1="12.063" x2="14.562" y2="12.1547" gradientUnits="userSpaceOnUse">
<stop stop-color="#009877"/>
<stop offset="1" stop-color="#50D098"/>
</linearGradient>
<linearGradient id="paint13_linear_2728_36153" x1="14.9823" y1="12.9924" x2="16.7326" y2="11.4164" gradientUnits="userSpaceOnUse">
<stop stop-color="#8ED7C6"/>
<stop offset="1" stop-color="#56ADAB"/>
</linearGradient>
<linearGradient id="paint14_linear_2728_36153" x1="18.4609" y1="12.2729" x2="19.1089" y2="12.1992" gradientUnits="userSpaceOnUse">
<stop stop-color="#8ED7C6"/>
<stop offset="1" stop-color="#56ADAB"/>
</linearGradient>
</defs>
</svg>

<svg xmlns="http://www.w3.org/2000/svg" fill="none" viewBox="0 0 39 32"><path fill="url(#a)" stroke="#363636" stroke-width=".372" d="M11.222 5.454c1.423-.822 3.732-.822 5.156 0l13.725 7.924c1.424.822 1.424 2.155 0 2.977l-9.005 5.2c-1.424.821-3.732.821-5.156 0L2.216 13.63c-1.424-.822-1.424-2.155 0-2.977l9.006-5.2Z"/><path fill="url(#b)" d="m1.528 13.232 15.105 8.72v3.27l-15.105-8.72v-3.27Z"/><path fill="url(#c)" d="M.746 12.141c0 .426.299.812.782 1.09v3.27c-.483-.278-.782-.664-.782-1.09v-3.27Z"/><path fill="url(#d)" d="M16.633 21.953c1.043.602 2.734.602 3.777 0v3.27c-1.043.602-2.734.602-3.777 0v-3.27Z"/><path fill="#363636" d="M31.576 14.867c0 .425-.298.81-.782 1.09v3.27c.484-.279.782-.664.782-1.09v-3.27Z"/><path fill="url(#e)" d="m20.215 22.067 10.629-6.136v3.277l-10.629 6.137v-3.277Z"/><path stroke="#363636" stroke-width=".372" d="m1.528 13.232 15.105 8.72m-15.105-8.72v3.27m0-3.27c-.483-.28-.782-.665-.782-1.09v3.27c0 .425.299.81.782 1.09m15.105 5.45v3.27m0-3.27c1.043.603 2.734.603 3.777 0v3.27c-1.043.603-2.734.603-3.777 0m0 0-15.105-8.72m30.049-1.635c0 .425-.3.81-.783 1.09v3.27c.484-.279.782-.664.782-1.09v-3.27Zm-11.362 7.2 10.629-6.136v3.277l-10.629 6.137v-3.277Z"/><path fill="url(#f)" d="M14.262 10.779c1.303-.753 3.417-.753 4.72 0l7.08 4.088c1.304.752 1.304 1.973 0 2.725-1.303.753-3.416.753-4.72 0l-7.08-4.088c-1.304-.752-1.304-1.973 0-2.725Z"/><path fill="url(#g)" d="m13.79 13.232 8.024 4.633v1.09l-8.024-4.633v-1.09Z"/><path fill="url(#h)" d="m25.59 17.865.945-.545v1.09l-.944.545v-1.09Z"/><path fill="url(#i)" d="M13.008 12.142c0 .425.299.81.782 1.09v1.09c-.483-.28-.782-.665-.782-1.09v-1.09Z"/><path fill="url(#j)" d="M21.814 17.865c1.043.602 2.734.602 3.777 0v1.09c-1.043.602-2.734.602-3.777 0v-1.09Z"/><path fill="url(#k)" d="M27.317 16.23c0 .425-.3.81-.782 1.09v1.09c.483-.28.782-.665.782-1.09v-1.09Z"/><path stroke="#363636" stroke-width=".372" d="m13.79 13.232 8.024 4.633m-8.024-4.633v1.09m0-1.09c-.483-.28-.782-.665-.782-1.09v1.09c0 .425.299.81.782 1.09m8.024 3.543v1.09m0-1.09c1.043.602 2.734.602 3.777 0m-3.777 1.09-8.024-4.633m8.024 4.633c1.043.602 2.734.602 3.777 0m0-1.09.944-.545m-.944.545v1.09m.944-1.635v1.09m0-1.09c.483-.28.782-.665.782-1.09v1.09c0 .425-.3.81-.782 1.09m0 0-.944.545m-11.33-5.45 7.082 4.087c1.303.753 3.416.753 4.72 0 1.303-.752 1.303-1.973 0-2.725l-7.08-4.088c-1.304-.753-3.418-.753-4.721 0-1.304.752-1.304 1.973 0 2.725Z"/><circle cx="2.18" cy="2.18" r="2.18" fill="url(#l)" stroke="#363636" stroke-width=".372" transform="matrix(.866 .5 -.866 .5 16.496 9.143)"/><path fill="url(#m)" stroke="#363636" stroke-width=".372" d="M13.824 11.323c0 .426.3.812.782 1.09v.546c-.483-.28-.782-.665-.782-1.09v-.546Z"/><path fill="url(#n)" stroke="#363636" stroke-width=".372" d="M14.605 12.414c1.043.602 2.734.602 3.777 0v.545c-1.043.602-2.734.602-3.777 0v-.545Z"/><path fill="url(#o)" stroke="#363636" stroke-width=".372" d="M19.165 11.323c0 .426-.299.812-.782 1.09v.546c.483-.28.782-.665.782-1.09v-.546Z"/><defs><linearGradient id="a" x1="3.292" x2="24.836" y1="12.676" y2="23.166" gradientUnits="userSpaceOnUse"><stop stop-color="#009877"/><stop offset="1" stop-color="#50D098"/></linearGradient><linearGradient id="b" x1=".741" x2="31.572" y1="18.815" y2="18.815" gradientUnits="userSpaceOnUse"><stop stop-color="#005D84"/><stop offset="1" stop-color="#4A989D"/></linearGradient><linearGradient id="c" x1="3.823" x2="23.833" y1="19.999" y2="9.166" gradientUnits="userSpaceOnUse"><stop stop-color="#8ED7C6"/><stop offset="1" stop-color="#56ADAB"/></linearGradient><linearGradient id="d" x1="3.823" x2="23.833" y1="19.999" y2="9.166" gradientUnits="userSpaceOnUse"><stop stop-color="#FF797F"/><stop offset="1" stop-color="#FF587F"/></linearGradient><linearGradient id="e" x1="3.823" x2="23.833" y1="19.999" y2="9.166" gradientUnits="userSpaceOnUse"><stop stop-color="#FF797F"/><stop offset="1" stop-color="#FF587F"/></linearGradient><linearGradient id="f" x1="14.436" x2="25" y1="15.551" y2="11.643" gradientUnits="userSpaceOnUse"><stop stop-color="#8ED7C6"/><stop offset="1" stop-color="#56ADAB"/></linearGradient><linearGradient id="g" x1="14.436" x2="25" y1="15.551" y2="11.643" gradientUnits="userSpaceOnUse"><stop stop-color="#8ED7C6"/><stop offset="1" stop-color="#56ADAB"/></linearGradient><linearGradient id="h" x1="14.436" x2="25" y1="15.551" y2="11.643" gradientUnits="userSpaceOnUse"><stop stop-color="#8ED7C6"/><stop offset="1" stop-color="#56ADAB"/></linearGradient><linearGradient id="i" x1="14.436" x2="25" y1="15.551" y2="11.643" gradientUnits="userSpaceOnUse"><stop stop-color="#8ED7C6"/><stop offset="1" stop-color="#56ADAB"/></linearGradient><linearGradient id="j" x1="14.436" x2="25" y1="15.551" y2="11.643" gradientUnits="userSpaceOnUse"><stop stop-color="#8ED7C6"/><stop offset="1" stop-color="#56ADAB"/></linearGradient><linearGradient id="k" x1="14.436" x2="25" y1="15.551" y2="11.643" gradientUnits="userSpaceOnUse"><stop stop-color="#8ED7C6"/><stop offset="1" stop-color="#56ADAB"/></linearGradient><linearGradient id="l" x1=".435" x2="3.899" y1="2.532" y2="1.709" gradientUnits="userSpaceOnUse"><stop stop-color="#8ED7C6"/><stop offset="1" stop-color="#56ADAB"/></linearGradient><linearGradient id="m" x1="13.88" x2="14.562" y1="12.063" y2="12.155" gradientUnits="userSpaceOnUse"><stop stop-color="#009877"/><stop offset="1" stop-color="#50D098"/></linearGradient><linearGradient id="n" x1="14.982" x2="16.733" y1="12.992" y2="11.416" gradientUnits="userSpaceOnUse"><stop stop-color="#8ED7C6"/><stop offset="1" stop-color="#56ADAB"/></linearGradient><linearGradient id="o" x1="18.461" x2="19.109" y1="12.273" y2="12.199" gradientUnits="userSpaceOnUse"><stop stop-color="#8ED7C6"/><stop offset="1" stop-color="#56ADAB"/></linearGradient></defs></svg>
